X: 14603
T: Gan Ainm
R: jig
M: 6/8
K: Eminor
EGE E2D|G2A E2D|d2e BGB|A2G E3|
ded d2B|e2d e2g|edB G2A|B3 B3|
EGE E2D|G2A E2D|B2A def|g3 f2e|
dge d2A|BGE G2B|AGE D2E|E3 E3|

